**kern	**kern	**dynam
*part1	*part1	*part1
*staff2	*staff1	*
*I"Piano	*	*
*clefF4	*clefG2	*
*k[b-]	*k[b-]	*
=1	=1	=1
8EE-XL 8E-X	8B-L 8e-X 8g	.
8E-J	8B-J 8e- 8g	.
4E-	4B- 4e- 4g	.
4E-	4B- 4e- 4g	[[
=	=	=
8CCL 8C	8fL 8a 8ee-X	.
8CJ	8fJ 8a 8ee-	.
4C	4f 4a 4ee-	.
4C	4f 4a 4ee-	.
=	=	=
!	!	!LO:DY:a
8CCL 8C	8fL 8a 8ee-X	>
8CJ	8fJ 8a 8ee-	.
4C	4f 4a 4ee-	.
4BBB- 4BB-	4f 4b- 4dd	.
=	=	=
8CCL 8C	8fL 8a 8cc	.
8CJ	8fJ 8a 8cc	.
4C	4en 4g 4b-	.
4C	4B- 4e 4g	]]
=	=	=
8FFL 8F	8AL 8f	.
8FJ	8AJ 8f	.
4F	4A 4f	.
!	!	!LO:DY:a
[4F	(4ff 4aa	p
=	=	=
8FF':L 8F:]	8a'L) 8cc	.
8F'J	8a'J 8cc	.
4F'	4a' 4cc	.
(4F	(4ff 4aa	.
=	=	=
8C':L) 8c:	8gL) 8cc 8ee	.
8c'J	8g'J 8cc 8ee	.
4c'	4g' 4cc 4ee	.
(4c	(4ee 4gg	.
=	=	=
*-	*-	*-
!!!system-decoration: {(s1,s2)}
